X: 1867
T: Tekirdağ Karşılaması
C: ?
O: Turkey
F: http://compmusic.upf.edu/node/140
N: rast--karsilama--ciftesofyan--tekirdag_karsilamasi--
N: makam= rast
N: form= karsilama
N: usul= ciftesofyan = 9/8
M: 9/8
L: 1/16
K: C _1/4B ^f  
Q: 1/4=216
%%MIDI tuningsystem comma53
e2f2 g2a2 f2g2 e4 d2 | e2 f2g2 a2f2 g2e4d2  | \
w:   |   | 
e2f2 g2a2 g2f2 c'2b2 a2 | 
w:   | 
g2 =f2e2 d2c2 B2c2 d2z2  | e2f2 g2a2 f2g2 e4 d2 | \
w:   |   | 
e2 f2g2 a2f2 g2e4d2  | 
w:   | 
e2f2 g2a2 g2f2 c'2b2 a2 | g2 =f2e2 d2c2 B2c2 d2z2  | \
w:   |   | 
_7/8e2d2 e2f2 d4 c2d2 z2 | 
w:   | 
_7/8e2 d2e2 f2d4c2 d2z2  | g2f2 _7/8e2d2 c2B2 =e2d2 c2 | \
w:   |   | 
c2 _2/4B2B2 A2A2 _1/4B2c2 d2z2  | 
w:   | 
_7/8e2d2 e2f2 d4 c2d2 z2 | _7/8e2 d2e2 f2d4c2 d2z2  | \
w:   |   | 
g2f2 _7/8e2d2 c2B2 =e2d2 c2 | 
w:   | 
c2 _2/4B2B2 A2A4G2 A2_1/4B2  | c2B2 c2d2 c2B2 e2d2 c2 | \
w:   |   | 
cB A2B2 c2B2 A2G2 A2B2  | 
w:   | 
c2B2 c2d2 c2B2 e2d2 d2 | c2 _2/4B2B2 A2A4G2 A2_1/4B2  | \
w:   |   | 
c2B2 c2d2 c2B2 e2d2 c2 | 
w:   | 
cB A2B2 c2B2 A2G2 A2B2  | c2B2 c2d2 c2B2 e2d2 d2 | \
w:   |   | 
c2 _2/4B2B2 A2A4z6  | 
w:   | 
|


